X:88
T:BLKBRD1- The Bonny Lass of Aberdeen
S:from Oswald's CPC, bk. 12, c 1760
Q:1/4=120
L:1/4
M:C|
K:Dm
A/|B3/4c/4B3/4c/4A3/2c/|(B/4c/4d/) ~c3/4A/4 G~G3/4D/4|\
Ff(c/B/)(A/G/)|F(E3/4D/8E/8)D3/2::e/|f/F/ f/g/ (f/4g/4)a/ g/f/|\
g/G/ g/a/ (g/4a/4b/) ~a3/4f/4|(f/e/) (f/g/) (f/4g/4a/) ~g/f/|\
g/f/~e/d/ cf3/4g/4|a3/4g/4f/a/ g/(f/4g/4) e/g/|\
(f/e/)(d/^c/) d3/4e/4f/d/|~=B/A/ ~G/F/ G/(A/4B/4) A/G/|\
F~E3/4(D/8E/8)D3/2:|]

